!!!OTL: Die Mordeltern Es warn einmal zwei Bauerssoehn,
!!!ARE: Europa, Mitteleuropa, Deutschland / France, Lothringen, Kr. Bolchen,
!!    Lubeln
!!!YOR: 4, S. 260
!!    ????
!!!SCT: Q0085
!!!YEM: Copyright 1995, estate of Helmut Schaffrath.
**kern
*ICvox
*Ivox
*M3/4
*k[]
*a:
{8a
8e
8a
=1
4.a
8gn
8a
8ccn
=2
4.b}
{8gn
8ccn
8b
=3
4.a
8a
8e
8f#
=4
4.gn
8r}
{4gn
=5
8a
8e
8fn
8e
8d
8fn
=6
4.e
8r}
{8b
8ccn
=7
4.dd
8b
12ccn
12b
12a
=8
4gn
8a}
==
!!!AGN: Ballade, Habgier, Mord, Reue, Selbstmord
!!!ONB: ESAC (Essen Associative Code) Database: BALLADE
!!!AMT: simple triple
!!!AIN: vox
!!!EED: Helmut Schaffrath
!!!EEV: 1.0
*-
